X:1
T:Make Thee Ready, as Best Thou Art Able
T:Arranged by Charles Wood
T:Make Thee Ready, as Best Thou Art Able
T:Public Domain
T:Public Domain
C:Arranged by Charles Wood
Z:Public Domain
%%score ( 1 2 ) ( 3 4 )
L:1/8
M:3/4
K:F
V:1 treble 
V:2 treble 
V:3 bass 
V:4 bass 
V:1
 z2 [FA]2 [FB]2 | [Fc]3 [CA] [DA]2 | [DB]3 [DA] [EG]2 | [FA]4 [EG]2 | z2 F2 [FB]2 | %5
w: 1.~Make thee|rea- dy, as|best thou art|a- ble,|~ Lit-|
w: 2.~Type and|sha- dow of|yore are now|end- ed;|~ Lo,|
w: 3.~He is|past through the|vir- gin- al|por- tal;|~ The|
w: 4.~Where- fore|Ad- am and|Ev- a, for-|giv- en|~ Their|
 [FA]3 [EG] [FA]2 | [FA]3 [DG] [EA]2 | F6 | z2 [CE]2 [CF]2 | [DG]3 [DF] [CE]2 | %10
w: * Beth- le-|hem, gar- nish|the|Tho’ it|be but a|
w: * sub- stance|is come, as|I|Truth In-|car- nate to|
w: * vi- si-|ble doth not|de-|To be|found in the|
w: * i- qui-|ty cry, “By|the|And good-|will of our|
 [CD]3 [CE] [=B,F]2 | [CE]4 [=B,D]2 | z2 C2 [CF]2 | [CE]3 [=B,D] [CE]2 | [CE]3 [A,D] [=B,D]2 | %15
w: crib in a|sta- ble,|~ Where|In- fant may|pil- low His|
w: earth is de-|scend- ed,|~ God|pitch- èd His|tent a- mong|
w: fa- shion of|mor- tal,|~ For|make hu- man|na- ture di-|
w: Lord are we|shriv- en;|~ Seen|men, He doth|ran- som our|
 z4 D2 | E3 D C2- | (C3 D E2) | z2 F2 [FB]2 | [FA]3 [EG] [FA]2 | [DA]3 [DG] [EG]2 | F6 |] %22
w: |||~ Where|* In- fant|may pil- low|His|
w: |||~ God|* pitch- èd|His tent a-|mong|
w: |||~ For|* make hu-|man na- ture|di-|
w: |||~ Seen|* men, He|doth ran- som|our|
V:2
 x6 | x6 | x6 | x6 | A4 x2 | x6 | x6 | F6 | x6 | x6 | x6 | x6 | E4 x2 | x6 | x6 | C6- | C4- x2 | %17
w: ||||tle|||bed,|||||the|||||
w: ||||the|||ken;|||||hath|||||
w: ||||In-|||cline|||||to|||||
w: ||||in-|||grace|||||of|||||
 G4 x2 | A4 x2 | x6 | x6 | F6 |] %22
w: head,|the|||head.|
w: men.|hath|||men.|
w: vine,|to|||vine.|
w: race;|of|||race.”|
V:3
 z2 [F,C]2 [D,B,]2 | [A,,F,]3 [A,,F,] [D,F,]2 | [B,,F,]3 [B,,F,] [C,C]2 | [F,C]4 [C,C]2 | %4
 z2 [F,C]2 [B,,D]2 | [C,C]3 [C,C] [F,C]2 | [B,,D]3 [B,,D] [C,C]2 | [F,A,]6 | z2 [C,G,]2 [A,,A,]2 | %9
 [=B,,G,]3 [B,,G,] [C,G,]2 | [F,A,]3 [F,A,] G,2 | [C,G,]4 [G,,G,]2 | z2 [C,G,]2 [F,A,]2 | %13
 G,3 G, [C,G,]2 | [F,A,]3 [F,A,] G,2 | [C,G,]6- | G,2 E,2 [D,F,]2 | ([E,G,]2 z D, C,2) | %18
 [F,C]4 [B,,D]2 | [C,C]3 [C,C] [F,C]2 | [B,,B,]3 [B,,B,] [C,B,]2 | [F,A,]6 |] %22
V:4
 x6 | x6 | x6 | x6 | x6 | x6 | x6 | x6 | x6 | x6 | x4 G,2 | x6 | x6 | G,3 G, x2 | x4 G,2 | x6 | %16
 C,4 x2 | x2 C4 | x6 | x6 | x6 | x6 |] %22

